X: 898
T: Alibi Wahoo, The
R: slide
M: 12/8
K: Bminor
|:E2B B2A G2F E2D|E2B BAB dcB AGF|
E2B B2A G2F E2D|EFG F2d B3 B3:|
B2e ede g2f e2d|B2e ede g2a b3|
B2e ede g2f e2d|Bcd c2A B3 B3|
B2e ede g2f e2d|B2e ede g2a bge|
B2e ede g2f e2d|Bcd c2A B3 BAG||

